packages/kaspersky-hexa-ui-icons/src/iconsSVGs/24/SubNod.svg

<svg width="24" height="24" viewBox="0 0 24 24" fill="none" xmlns="http://www.w3.org/2000/svg">
<path fill-rule="evenodd" clip-rule="evenodd" d="M5 11C4.44772 11 4 11.4477 4 12C4 12.5523 4.44772 13 5 13C5.55228 13 6 12.5523 6 12C6 11.4477 5.55228 11 5 11ZM2 12C2 10.3431 3.34315 9 5 9C6.65685 9 8 10.3431 8 12C8 13.6569 6.65685 15 5 15C3.34315 15 2 13.6569 2 12ZM9 12C9 11.4477 9.44772 11 10 11H21C21.5523 11 22 11.4477 22 12C22 12.5523 21.5523 13 21 13H10C9.44772 13 9 12.5523 9 12Z" fill="black"/>
</svg>

<svg xmlns="http://www.w3.org/2000/svg" width="24" height="24" fill="none" viewBox="0 0 24 24"><path fill="#000" fill-rule="evenodd" d="M5 11c-.5523 0-1 .4477-1 1s.4477 1 1 1 1-.4477 1-1-.4477-1-1-1m-3 1c0-1.6569 1.3432-3 3-3s3 1.3431 3 3-1.3431 3-3 3-3-1.3431-3-3m7 0c0-.5523.4477-1 1-1h11c.5523 0 1 .4477 1 1s-.4477 1-1 1H10c-.5523 0-1-.4477-1-1"/></svg>
